!!!COM:	Busnoys, Antoine
!!!CDT:	~1430///-1492/11/06
!!!OTL:	Bone chere
!!!AGN:	Song; Chanson
!!!SCT:	Bus3010
!!!SCA:	Bus3010
!!!voices:	3
**kern	**kern	**kern
*staff3	*staff2	*staff1
*Ivox	*Ivox	*Ivox
*I"Contra	*I"Tenor	*I"Superius
*I'C	*I'T	*I'S
*clefF4	*clefGv2	*clefG2
*k[b-]	*k[b-]	*k[b-]
*M2/1	*M2/1	*M2/1
*met(C|)	*met(C|)	*met(C|)
=1-	=1-	=1-
!!LO:TX:Z=12:t=Rondeau?
0r	1.G	0r
.	4F	.
.	4E	.
=2	=2	=2
1r	1F	0r
[1G	2G	.
.	[2B-	.
=3	=3	=3
2G]	2B-]	0r
4F	4A	.
4E	4G	.
1F	1A	.
=4	=4	=4
2G	0G	1.g
1B-	.	.
4A	.	4f
4G	.	4e
=5	=5	=5
1A	1D	1f
[1G	1E-	2g
.	.	[2b-
=6	=6	=6
1G]	0D	2b-]
.	.	4a
.	.	4g
1F	.	1a
=7	=7	=7
[0G	1E-i	1.g
.	1C	.
.	.	4f
.	.	4e
=8	=8	=8
1G]	2r	1d
.	1G	.
1C	.	1e-
.	2A	.
=9	=9	=9
0G	1B-	0d
.	1B-	.
=10	=10	=10
1r	0c	1e-i
[1A	.	1c
=11	=11	=11
2A]	0B-	1.f
2G	.	.
[1G	.	.
.	.	4g
.	.	4a
=12	=12	=12
2G]	1G	1b-
2.D	.	.
.	2F	2a
4C	.	.
4BB-	[2G	[2b-
4AA	.	.
=13	=13	=13
1GG	2G]	2b-]
.	2B-	2.g
1D	1A	.
.	.	4f#i
.	.	4f#i
.	.	4e
=14	=14	=14
0E-	0G	0g
=15	=15	=15
0D	1r	0a
.	1d	.
=16	=16	=16
0C	0e-	1r
.	.	1g
=17	=17	=17
0G	0d	1b-
.	.	1b-
=18	=18	=18
0C	0e-	1r
.	.	1g
=19	=19	=19
0G	0d	1b-
.	.	1b-
=20	=20	=20
[0D	1d	1.a
.	1d	.
.	.	2f
=21	=21	=21
0D]	1.d	0f
.	4c	.
.	4B-	.
=22	=22	=22
0D	1A	1r
.	1A	1f
=23	=23	=23
1GG	1r	2g
.	.	2b-
1D	1F	1a
=24	=24	=24
2.BB-	2G	1d
.	2B-	.
4C	.	.
2.D	1A	2r
.	.	[2f
4E	.	.
=25	=25	=25
1F	1D	4f]
.	.	4g
.	.	2a
2G	2r	2b-
2A	[2F	[2a
=26	=26	=26
1D	4F]	4a]
.	4G	4g
.	2A	4f
.	.	4e
1r	2B-	2d
.	[2A	2e
=27	=27	=27
2.D	4A]	2f
.	4G	.
.	4F	1a
4E	4E	.
2.F	2D	.
.	2E	2g
4E	.	.
=28	=28	=28
2D	2F	2f
4C	1A	4e
4BB-	.	4d
2AA	.	2c
[2C	2G	[2e
=29	=29	=29
2C]	2A	2e]
2D	2F	1d
1E	1E	.
.	.	2c#i
=30	=30	=30
2BB-N	[0DN	0dN
4AA	.	.
4GG	.	.
2FF	.	.
[2BB-	.	.
=31	=31	=31
4BB-]	0D]	1r
4C	.	.
4D	.	.
4E	.	.
2F	.	1a
[2D	.	.
=32	=32	=32
2D]	1r	1b-
1G	.	.
.	1A	1cc
2F	.	.
=33	=33	=33
1G	1B-	2b-
.	.	1g
1C	1c	.
.	.	4f
.	.	4e
=34	=34	=34
1.GG	2B-	1d
.	1G	.
.	.	1g
2AA	4F	.
.	4E	.
=35	=35	=35
1BB-	1D	2f
.	.	1b-
[1GG	1G	.
.	.	4a
.	.	4g
=36	=36	=36
1GG]	2F	2a
.	1B-	2b-
1GG	.	1g
.	4A	.
.	4G	.
=37	=37	=37
1D	1A	1f
1E-i	1G	1g
=38	=38	=38
1D	1F	1a
1GG	1G	2b-
.	.	4a
.	.	4g
=39	=39	=39
0D	1A	0f
.	[1B-	.
=40	=40	=40
0E-i	1B-]	0g
.	1c	.
=41	=41	=41
2D	1d	1.f
1BB-	.	.
.	1B-	.
4AA	.	[2b-
4GG	.	.
=42	=42	=42
2.FF	0c	2b-]
.	.	2a
4EE	.	.
1FF	.	2a
.	.	2g
=43	=43	=43
2.BB-	[0B-	0b-
4C	.	.
2D	.	.
[2E-i	.	.
=44	=44	=44
2E-]	0B-]	1r
4D	.	.
4C	.	.
[1BB-	.	1f
=45	=45	=45
1BB-]	1r	1f
1BB-	1B-	1f
=46	=46	=46
0GG	0B-	1g
.	.	1g
=47	=47	=47
0D	0A	1f
.	.	1f
=48	=48	=48
2GG	0G	2g
2BB-	.	2d
2C	.	2e
[2GG	.	[2d
=49	=49	=49
4GG]	1D	4d]
4AA	.	4c
2BB-	.	4B-
.	.	4A
1C	1E	1G
=50	=50	=50
2D	1F	2r
1BB-	.	1d
.	[1G	.
2C	.	2e
=51	=51	=51
1GG	1G]	2d
.	.	1g
1D	1A	.
.	.	2f
=52	=52	=52
1GG	1G	2g
.	.	1b-
[1F	[1c	.
.	.	[2a
=53	=53	=53
1F]	1c]	4a]
.	.	4g
.	.	4f
.	.	4e
1G	1B-	2d
.	.	[2g
=54	=54	=54
0D	0A	2g]
.	.	4f#i
.	.	4e
.	.	1f#i
=55	=55	=55
0GGl	0Gl	0gl
==	==	==
*-	*-	*-
!!!RDF**kern: l=long note in original notation
!!!RDF**kern: i=editorial accidental
!!!RDF**kern: N=signum congruentiae
!!!ENC:	Chris Gage 04-02-2015
!!!END:	2015/05/01/
!!!EED:	Jesse Rodin
!!!EEV:	2015/05/10/
!!!ONB:	Translated from MusicXML and edited on 2015/05/10/ by Craig Sapp
!!muse2ps: C^@{COM}^i2I150v95,95,150Q16
